X: 44
T: 30-50
R: polka
M: 2/4
K: Dmajor
FB Bc|dc BA|dc/B/ AG|FB B2|
Bc/B/ AF|GB/G/ FD|AB AG|FD EF|
GB Bc|dc BA|dc/B/ AG|FB B2|
Bc/B/ AF|GB/G/ FD|AG FE|D2- Dg||
|:a2 ge|fd dg|ag fd|ed/e/ fg|
a2 ge|fd dc|Bd de|1 d2- dg:|2 d2- d2||

